!!!COM: Palestrina, Giovanni Perluigi da
!!!OPR: O Rex gloriae
!!!OTL: Sanctus
**kern	**kern	**kern	**kern
*Ibass	*Itenor	*Icalto	*Icant
!Bassus	!Tenor	!Altus	!Cantus
*clefF4	*clefGv2	*clefG2	*clefG2
*k[b-]	*k[b-]	*k[b-]	*k[b-]
*G:dor	*G:dor	*G:dor	*G:dor
*M4/2	*M4/2	*M4/2	*M4/2
=1	=1	=1	=1
1r	0r	0g	0r
[1G	.	.	.
=2	=2	=2	=2
1G]	0r	1d	0dd
1D	.	2.f	.
.	.	8e	.
.	.	8d	.
=3	=3	=3	=3
1F	0r	2.c	1a
.	.	4d	.
1E	.	4e	1cc
.	.	4f	.
.	.	[2g	.
=4	=4	=4	=4
0D	0d	2g]	1b-
.	.	4f	.
.	.	4e	.
.	.	1f	2a
.	.	.	2dd
=5	=5	=5	=5
0r	1A	2e	2cc
.	.	1a	2.ff
.	1c	.	.
.	.	.	4ee
.	.	4g	[2ee
.	.	4f	.
=6	=6	=6	=6
0r	1B-	4g	4ee]
.	.	4f	4dd
.	.	4f	1dd
.	.	8e	.
.	.	8d	.
.	1A	1e	.
.	.	.	2cc
=7	=7	=7	=7
0d	1r	2f	2a
.	.	2.g	2b-
.	2r	.	[1a
.	.	4f	.
.	2d	2f	.
=8	=8	=8	=8
1A	2c	2e	1a]
.	2.f	2.a	.
1c	.	.	2r
.	4e	4g	.
.	[2e	2e	[2a
=9	=9	=9	=9
1B-	4e]	2f	2a]
.	4d	.	.
.	1d	2d	2g
1A	.	1e	[1a
.	2c#	.	.
=10	=10	=10	=10
2r	2d	1d	0a]
2.d	2.f	.	.
.	.	2r	.
4d	4f	.	.
2d	2f	[2a	.
=11	=11	=11	=11
2c	2e	4a]	0r
.	.	4a	.
2B-	2d	2g	.
2A	2e	[1cc	.
2A	2f#	.	.
=12	=12	=12	=12
0G	2g	2cc]	2r
.	4G	2b-	2.dd
.	4A	.	.
.	4B-	4g	.
.	4c	4a	4dd
.	4d	4b-	2dd
.	4e	4g	.
=13	=13	=13	=13
1r	2f	2a	2cc
.	2g	2g	2b-
2r	1d	2.f	2.a
[2d	.	.	.
.	.	4g	4g
=14	=14	=14	=14
4d]	2r	2a	4f
4d	.	.	4g
2d	2.a	2f	4a
.	.	.	4b-
2c	.	2e	2cc
.	4a	.	.
2B-	2g	2d	[2dd
=15	=15	=15	=15
2A	2f	2r	2dd]
2A	2e	2.a	2cc#
1D	4f	.	2dd
.	4e	4a	.
.	4d	2a	[2dd
.	4c	.	.
=16	=16	=16	=16
0r	1B-	2g	4dd]
.	.	.	4dd
.	.	2f	2dd
.	1c	4e	2cc
.	.	4f	.
.	.	[2g	2b-
=17	=17	=17	=17
1r	1d	2g]	2a
.	.	2f#	2a
2r	1G	1g	2g
[2G	.	.	[2b-
=18	=18	=18	=18
4G]	2r	2.d	4b-]
4G	.	.	4b-
2G	2.d	.	2b-
.	.	4e	.
2F	.	4f	2a
.	4d	4g	.
2D	2d	[2a	2ff
=19	=19	=19	=19
2F	2c	2a]	2ff
2G	2B-	1g	2dd
1D	2A	.	2.dd
.	2A	2f#	.
.	.	.	4cc
=20	=20	=20	=20
2r	1G	2g	1b-
2d	.	2g	.
2e-	1r	2g	2r
2d	.	2f	2dd
=21	=21	=21	=21
1e-	2r	1g	2dd
.	2g	.	2cc
1d	2g	1a	1dd
.	2f	.	.
=22	=22	=22	=22
0r	2.g	2.b-	1dd
.	4f	4a	.
.	2e-	2g	2r
.	2d	2f	2dd
=23	=23	=23	=23
0r	2c	4g	2ee-
.	.	4a	.
.	2B-	1b-	2dd
.	1c	.	1ee-
.	.	2a	.
=24	=24	=24	=24
2r	1B-	2.b-	2dd
2G	.	.	4b-
.	.	4a	4cc
2B-	1r	4f	4dd
.	.	4g	4ee
2A	.	2a	[2ff
=25	=25	=25	=25
1B-	2r	1d	4ff]
.	.	.	4ee
.	2d	.	1dd
1A	2f	2r	.
.	2e	2a	2cc#
=26	=26	=26	=26
1d	1f	2b-	0dd
.	.	2a	.
1G	2d	1b-	.
.	2g	.	.
=27	=27	=27	=27
2D	2.f	2a	2r
1d	.	2f	2a
.	8e	.	.
.	8d	.	.
.	2f	2d	2b-
2c	[2e	2e	2a
=28	=28	=28	=28
2B-	2e]	2f	1b-
2G	1d	2g	.
1A	.	2f	[1a
.	2c	[2e	.
=29	=29	=29	=29
2.F	1f	4e]	1a]
.	.	4d	.
.	.	1d	.
4G	.	.	.
1A	1e	.	2r
.	.	2c#	2ee
=30	=30	=30	=30
2r	2d	1d	2ff
2d	2f	.	1dd
2B-	2g	1r	.
2c	2g	.	4cc
.	.	.	4b-
=31	=31	=31	=31
2.d	2.f	0r	1a
4c	4e	.	.
4B-	4d	.	1r
4A	4c	.	.
[2G	[2B-	.	.
=32	=32	=32	=32
2G]	2B-]	1dd	2r
2D	2A	.	2ff
1E-	1G	2b-	2gg
.	.	2cc	2gg
=33	=33	=33	=33
1D	1A	2.dd	2.ff
.	.	4cc	4ee-
1G	1B-	4b-	4dd
.	.	4a	4cc
.	.	[2g	[2b-
=34	=34	=34	=34
2G	2G	2g]	2b-]
2F	2A	2d	2a
2E-	2B-	1e-	2g
2C	[2c	.	[2a
=35	=35	=35	=35
0D	2c]	[0d	2a]
.	2B-	.	1g
.	1A	.	.
.	.	.	2f#
=36	=36	=36	=36
0G	0B	0d]	0g
==	==	==	==
*-	*-	*-	*-
!!!CDT: 1525/^1526/-1594/2/2
!!!OCY: Italia
!!!AGN: Mass (Parody)
!!!AST: renaissance, vocal
!!!ASW: Motet 1563 (Palestrina)
!!!PWK: Masses, Book 12
!!!RNB: Cadence finals: D
!!!YOR: Le Opere Complete, v. 29, p. 30
!!!YOO: Rome, Italy: Fratelli Scalera
!!!END: 1992//
!!!EED: John Miller
!!!YEC: Copyright 2000, John Miller
!!!YEN: United States of America
!!!YEM: Rights to all derivative electronic formats reserved.
!!!YEM: Refer to licensing agreement for further details.
!!!YEM: This file must be accompanied by the licensing agreement.
!!!YEM: A copy of the licensing agreement may be found at http://www.music-cog.ohio-state.edu/HumdrumDatabases/Palestrina/license.txt
!!!EMD: converted to Humdrum by Bret Aarden
